X: 31782
T: Patrick's Night
R: reel
M: 4/4
K: Gmajor
|:dc|BG E/F/G AGED|GABd egge|dG B/c/d gedB|A/B/A GB AGEG|
BG ~G2 AGED|~G2 B/c/d eg ~g2|dB ~B2 gedB|A^GAB =G2:|
|:Bd|g/a/g fa gedB|GB ~B2 GABd|~g2 f/g/a gedg|eA B/c/d eaaf|
gbaf gfge|dB ~B2 eBdB|GABd gedB|~A3 B G2:|

